Sources/FrostedUI/Resources/Icons.xcassets/rotate24.imageset/rotate-24.svg

<svg width="24" height="24" viewBox="0 0 24 24" fill="none" xmlns="http://www.w3.org/2000/svg" data-fui-icon="true">
  <path
    d="M9.32422 13C9.73843 13 10.0742 13.3358 10.0742 13.75C10.0742 14.1642 9.73843 14.5 9.32422 14.5H4.81836C5.3968 16.985 7.60594 20.25 12.2676 20.25C16.6218 20.2499 19.5494 17.3421 20.2637 13.6094C20.3415 13.2026 20.7339 12.936 21.1406 13.0137C21.5474 13.0915 21.814 13.4839 21.7363 13.8906C20.9008 18.2577 17.4132 21.7499 12.2676 21.75C7.71183 21.75 5.10735 19.1 3.93164 16.5078V19.9502C3.93154 20.3643 3.59579 20.7002 3.18164 20.7002C2.76749 20.7002 2.43175 20.3643 2.43164 19.9502V14.79C2.43164 13.8106 3.21962 13.0001 4.20996 13H9.32422ZM11.9141 2.25C16.4698 2.25 19.0743 4.89995 20.25 7.49219V4.0498C20.2501 3.63568 20.5859 3.2998 21 3.2998C21.4141 3.29981 21.7499 3.63568 21.75 4.0498V9.20996C21.75 10.1894 20.962 10.9999 19.9717 11H14.8574C14.4432 11 14.1074 10.6642 14.1074 10.25C14.1074 9.83579 14.4432 9.5 14.8574 9.5H19.3633C18.7848 7.01501 16.5757 3.75 11.9141 3.75C7.55983 3.7501 4.63222 6.6579 3.91797 10.3906C3.84015 10.7974 3.44776 11.064 3.04102 10.9863C2.63426 10.9085 2.36763 10.5161 2.44531 10.1094C3.28083 5.74234 6.76843 2.2501 11.9141 2.25Z"
    fill="currentColor"
  />
</svg>

<svg xmlns="http://www.w3.org/2000/svg" width="24" height="24" fill="none" data-fui-icon="true" viewBox="0 0 24 24"><path fill="currentColor" d="M9.324 13a.75.75 0 0 1 0 1.5H4.818c.579 2.485 2.788 5.75 7.45 5.75 4.354 0 7.281-2.908 7.996-6.64a.75.75 0 1 1 1.472.28c-.835 4.368-4.323 7.86-9.468 7.86-4.556 0-7.16-2.65-8.336-5.242v3.442a.75.75 0 0 1-1.5 0v-5.16c0-.98.788-1.79 1.778-1.79zm2.59-10.75c4.556 0 7.16 2.65 8.336 5.242V4.05a.75.75 0 0 1 1.5 0v5.16c0 .98-.788 1.79-1.778 1.79h-5.115a.75.75 0 0 1 0-1.5h4.506c-.578-2.485-2.787-5.75-7.449-5.75-4.354 0-7.282 2.908-7.996 6.64a.75.75 0 1 1-1.473-.28c.836-4.368 4.323-7.86 9.47-7.86"/></svg>
